X:1696
T:1696  The Gallop
C:From Winster Morris Dancers
I:June 25th 1908
Q:1/4=120
V:1
%!STAVE 0 'STAFF 1'@
%!INSTR '...' 00 '
K:G
M:2/2
P:A
(3dBA|G2 B2 G2 dA|G2 B2 G2 dA|G2 B2 G2 dA|G2 e2 d3 B|c2 e2 e2 dc|B2 d2 d4|A2 B2 c2 ec|B2 G2 G2||
P:B
c2|d6 d2|e6 e2|d6 d2|A6 A2|d6 d2|e6 e2|dedc B2 A2|G6||
P:C
z2|g2 f2 e2 d2|g2 f2 e2 d2|g2f2e2d2|c2B2 A4|f2 e2 d4|f2 e2 d4|d4 A3/2 c/2|B2 G2 G2||
%
